X:2681
T:Carolan's Concerto
T:Mrs. Power
C:Turlough Carolan
R:planxty
I:speed 300
M:C
K:D
d2ddd2cB|ABGA F2A2|E2A2 D2A2|Bcde dcBA|\
d2a2 fgaf|efge fgaf|gabg fdfa|gfed dcBA|\
(3Bcd Bd gBgB|AdAd fAfA|GBGB efed|c2Bc A3G|\
FGAF EFGE|FGAF GABG|A2d2 fedc|d4 d3||*
A|d2b2 agfe|d2a2 c2g2|B2e2 ABcd|ecBA d3f|\
edcB caaa|Bggg Afff|edcB caaa|Bggg bgbg|\
afaf edcB|cABG AFGE|DAFA DAFA|(3GFE BE (3GFE BA|\
FAdc BAGF|EFGA BcdB|A2d2 fedc|d4||**


